launcher/android/assets/skins/day/svg/mapReferencePoint1.svg

<svg enable-background="new 0 0 258.00 258.00" height="258" viewBox="0 0 258 258" width="258" xmlns="http://www.w3.org/2000/svg" xmlns:xlink="http://www.w3.org/1999/xlink"><linearGradient id="a" gradientTransform="matrix(0 -1 1 0 -.581108 1.581108)" gradientUnits="objectBoundingBox" x1=".5" x2="1.66222" y1="1.08111" y2="1.08111"><stop offset="0" stop-color="#abc4ab"/><stop offset=".771552" stop-color="#d5e1d5"/><stop offset="1" stop-color="#fff"/></linearGradient><linearGradient id="b"><stop offset="0" stop-color="#052f73"/><stop offset="1" stop-color="#3883fc"/></linearGradient><linearGradient id="c" gradientTransform="matrix(-1 0 0 -1 2.077422 1)" gradientUnits="objectBoundingBox" x1="1.03871" x2="2.11613" xlink:href="#b" y1=".5" y2=".5"/><linearGradient id="d" gradientTransform="matrix(-1 0 0 -1 2.077422 .999998)" gradientUnits="objectBoundingBox" x1="1.03871" x2="2.11613" y1=".499999" y2=".499999"><stop offset="0" stop-color="#b4caee"/><stop offset="1" stop-color="#fff"/></linearGradient><linearGradient id="e" gradientTransform="matrix(-1 0 0 -1 2.077424 .999998)" gradientUnits="objectBoundingBox" x1="1.03871" x2="2.11613" xlink:href="#b" y1=".499999" y2=".499999"/><g stroke-linecap="square" stroke-linejoin="bevel"><path d="m44 4.00012h170c22.092 0 40 17.90848 40 39.99988v170c0 22.092-17.908 40-40 40h-170c-22.0914 0-40-17.908-40-40v-170c0-22.0914 17.9086-39.99988 40-39.99988z" fill="url(#a)" stroke="#000" stroke-width="8"/><ellipse cx="126.789" cy="126.513" fill="url(#c)" rx="90.0002" ry="90.8107" stroke="#1a5ec7" stroke-width="8"/><ellipse cx="127.193" cy="127.727" fill="url(#d)" rx="60.8108" ry="61.3588" stroke-width=".2"/><ellipse cx="126.382" cy="126.919" fill="url(#e)" rx="40.5405" ry="40.9057" stroke-width=".2"/></g></svg>

﻿<?xml version="1.0" encoding="utf-8"?>
<!DOCTYPE svg PUBLIC "-//W3C//DTD SVG 1.1//EN" "http://www.w3.org/Graphics/SVG/1.1/DTD/svg11.dtd">
<svg xmlns="http://www.w3.org/2000/svg" xmlns:xlink="http://www.w3.org/1999/xlink" version="1.1" baseProfile="full" width="258" height="258" viewBox="0 0 258.00 258.00" enable-background="new 0 0 258.00 258.00" xml:space="preserve">
	<linearGradient id="SVGID_Fill1_" gradientUnits="objectBoundingBox" x1="0.5" y1="1.08111" x2="1.66222" y2="1.08111" gradientTransform="rotate(-90.000000 0.500000 1.081108)">
		<stop offset="0" stop-color="#ABC4AB" stop-opacity="1"/>
		<stop offset="0.771552" stop-color="#D5E1D5" stop-opacity="1"/>
		<stop offset="1" stop-color="#FFFFFF" stop-opacity="1"/>
	</linearGradient>
	<path fill="url(#SVGID_Fill1_)" stroke-width="8" stroke-linecap="square" stroke-linejoin="bevel" stroke="#000000" stroke-opacity="1" d="M 44,4.00012L 214,4.00012C 236.092,4.00012 254,21.9086 254,44L 254,214C 254,236.092 236.092,254 214,254L 44,254C 21.9086,254 4,236.092 4,214L 4,44C 4,21.9086 21.9086,4.00012 44,4.00012 Z "/>
	<linearGradient id="SVGID_Fill2_" gradientUnits="objectBoundingBox" x1="1.03871" y1="0.5" x2="2.11613" y2="0.5" gradientTransform="rotate(180.000000 1.038711 0.500000)">
		<stop offset="0" stop-color="#052F73" stop-opacity="1"/>
		<stop offset="1" stop-color="#3883FC" stop-opacity="1"/>
	</linearGradient>
	<ellipse fill="url(#SVGID_Fill2_)" stroke-width="8" stroke-linecap="square" stroke-linejoin="bevel" stroke="#1A5EC7" stroke-opacity="1" cx="126.789" cy="126.513" rx="90.0002" ry="90.8107"/>
	<linearGradient id="SVGID_Fill3_" gradientUnits="objectBoundingBox" x1="1.03871" y1="0.499999" x2="2.11613" y2="0.499999" gradientTransform="rotate(180.000000 1.038711 0.499999)">
		<stop offset="0" stop-color="#B4CAEE" stop-opacity="1"/>
		<stop offset="1" stop-color="#FFFFFF" stop-opacity="1"/>
	</linearGradient>
	<ellipse fill="url(#SVGID_Fill3_)" stroke-width="0.2" stroke-linecap="square" stroke-linejoin="bevel" cx="127.193" cy="127.727" rx="60.8108" ry="61.3588"/>
	<linearGradient id="SVGID_Fill4_" gradientUnits="objectBoundingBox" x1="1.03871" y1="0.499999" x2="2.11613" y2="0.499999" gradientTransform="rotate(180.000000 1.038712 0.499999)">
		<stop offset="0" stop-color="#052F73" stop-opacity="1"/>
		<stop offset="1" stop-color="#3883FC" stop-opacity="1"/>
	</linearGradient>
	<ellipse fill="url(#SVGID_Fill4_)" stroke-width="0.2" stroke-linecap="square" stroke-linejoin="bevel" cx="126.382" cy="126.919" rx="40.5405" ry="40.9057"/>
</svg>
